X:1
T:Cuckolds All
M:4/4
L:1/4
K:F
 c2| A F F D| F F F F| G A B c| d- d2 e| f f e e| f f F F| G- A B c|\
 G2 c2| A F F D| F F F F| G A B c| d- d2 e| f f e e| f f F F| G G A B|\
 G2||
